X: 35009
T: Roland's Return
R: jig
M: 6/8
K: Fmajor
CDF FGF|cAF AG^F|GAB fdB|cAF GFD|
CDF (3FGA F|cAF AG^F|G2G BAG|AFD DFD|
C2_A =AGF|cAF AG^F|G2A Bcd|fed cAF|
DFF CFF|B,FF A,FF|DFA BAG|AFD DFA|
d3 fed|e_e=e A=B^c|d2A fed|agf gec|
d2d fed|e^ce AGF|G2A BAG|AFD DFA|
d3 fed|e_e=e A=B^c|d2A fed|afa def|
a/g/fd gec|fed cAF|G2A BAG|AFD (3DEF D||

